reflection-app/data/resources/icons/scalable/actions/bluetooth-symbolic.svg

<?xml version="1.0" encoding="UTF-8"?>
<svg height="16px" viewBox="0 0 16 16" width="16px" xmlns="http://www.w3.org/2000/svg">
    <path d="m 7.585938 0.0898438 c -0.355469 0.1640622 -0.585938 0.5195312 -0.585938 0.9101562 v 5.296875 l -2.34375 -2.046875 c -0.414062 -0.363281 -1.042969 -0.324219 -1.40625 0.089844 c -0.363281 0.417968 -0.324219 1.046875 0.09375 1.410156 l 2.566406 2.25 l -2.566406 2.25 c -0.417969 0.363281 -0.457031 0.992188 -0.09375 1.40625 c 0.363281 0.417969 0.992188 0.457031 1.40625 0.09375 l 2.34375 -2.046875 v 5.296875 c 0 0.390625 0.230469 0.746094 0.585938 0.910156 c 0.359374 0.160156 0.777343 0.101563 1.070312 -0.160156 l 4 -3.5 c 0.21875 -0.1875 0.34375 -0.460938 0.34375 -0.75 s -0.125 -0.5625 -0.34375 -0.75 l -3.140625 -2.75 l 3.140625 -2.75 c 0.21875 -0.1875 0.34375 -0.460938 0.34375 -0.75 s -0.125 -0.5625 -0.34375 -0.75 l -4 -3.5 c -0.292969 -0.2617188 -0.710938 -0.3242188 -1.070312 -0.1601562 z m 1.414062 3.1132812 l 1.484375 1.296875 l -1.484375 1.296875 z m 0 7 l 1.484375 1.296875 l -1.484375 1.296875 z m 0 0" fill="#2e3436"/>
</svg>

<svg xmlns="http://www.w3.org/2000/svg" width="16" height="16" viewBox="0 0 16 16"><path fill="#2e3436" d="M7.586.09C7.23.254 7 .61 7 1v5.297L4.656 4.25a.996.996 0 1 0-1.312 1.5L5.91 8l-2.566 2.25a.993.993 0 0 0-.094 1.406.993.993 0 0 0 1.406.094L7 9.703V15c0 .39.23.746.586.91.36.16.777.102 1.07-.16l4-3.5c.219-.187.344-.46.344-.75s-.125-.562-.344-.75L9.516 8l3.14-2.75c.219-.187.344-.46.344-.75s-.125-.562-.344-.75l-4-3.5a.99.99 0 0 0-1.07-.16M9 3.203 10.484 4.5 9 5.797zm0 7 1.484 1.297L9 12.797zm0 0"/></svg>
